X:1
T:Jump at the Sun Harmony 1
C:copyright 1998 Jim Thompson
N:To be played with John Kirkpatrick tune ``Jump at the Sun''
R:Jig
E:18
M:6/8
K:Em
|:b3 _bge|=b3 _bge|=b3 gfe|a3 a=bc'|
E:14
b3 _bge|=b3 _bge|=b3 agf|1 agf e3:|2 b^c'^d' e'3||
E:18
|:b3 bag|a3 c'ba|b3 bag|a3 agf|
b3 bag|a3 c'ba|b3 agf|[1 a3 bge:|2 b^c'^d' e'3|]
